X:180
%%etbk:tnset id:57,pos:4,rep:3x,ant:
%%etbk:tnset id:257,pos:9,rep:3x-Stop,ant:
%%etbk:tnset id:288,pos:1,rep:3x,ant:
%%etbk:wsite http://www.thesession.org/tunes/display/219
%%etbk:pldat 2016-06-23T18:15,2016-06-21T15:57,2016-05-04T16:09,2016-03-09T16:49,2016-03-08T15:17,2016-02-29T19:36,2015-10-27T17:26,2015-10-25T14:43,2015-10-21T16:22,2015-10-07T16:58,2015-09-09T16:53,2015-09-03T16:56,2015-09-01T16:41,2015-08-30T14:58,2015-08-06T17:58,2015-08-05T16:53,2015-08-04T17:00,2015-08-03T18:46,2015-07-27T18:29,2015-06-26T17:12,2015-06-22T18:58,2015-06-18T18:21,2015-06-16T16:29,2015-05-27T18:30,2015-05-07T18:44,2015-04-16T19:23,2015-04-15T16:47,2015-04-13T19:03,2015-04-12T11:31,2015-04-11T14:44,2015-04-08T17:09,2015-03-19T19:20,2015-03-18T17:21,2015-03-16T19:49,2015-03-15T14:32,2015-03-13T18:18,2015-03-10T18:24,2015-03-09T17:55,2015-03-04T16:28,2015-02-22T16:07,2015-02-21T17:12,2015-02-18T16:54,2015-02-17T17:07,2015-02-14T14:18,2015-02-13T18:49,2015-02-10T16:45,2015-02-03T17:23,2015-01-29T18:52,2015-01-21T18:26,2015-01-14T15:41,2015-01-13T16:59,2015-01-12T19:15,2015-01-10T15:27,2015-01-08T18:46,2015-01-07T17:10,2015-01-06T18:38,2015-01-05T19:21,2014-11-06T18:04,2014-11-04T16:27,2014-10-28T15:59,2014-10-25T15:02,2014-08-21T18:27,2014-06-22T16:07,2014-06-13T15:25,2014-03-06T18:39,2014-03-04T19:21,2014-03-01T15:53,2014-02-23T11:25,2014-01-02T11:30,2013-12-28T14:33,2013-12-27T17:04,2013-10-29T17:17,2013-10-27T15:06,2013-10-23T18:24,2013-10-16T15:58,2013-10-13T14:10,2013-10-08T16:24,2013-05-10T16:17
T: Fermoy Lasses, The
Z: Piano Box Version by Martin Fleischmann
H: Created 2013-02-19 /  Last Modified 2013-02-19
M: 4/4
L: 1/8
R: reel
K: Emin
|: "em"!2!G!1!E!2!E!1!E !5!B!1!E!2!E!1!E | !2!GEEE !4!BcBA | !2!GEEE !5!BEEE | "D"!3!A!2!F!1!DF !3!A!5!cBA |
"em"!2!G!1!E !3!(3E!2!E!1!E !5!BE (3EEE | !3!GE (3EEE !4!BcB!3!A | "G"!1!G3!2!F !1!G!2!B!4!d!2!B | "D"!1!A!2!F!1!D!2!F !3!A!5!cBA :|
|: "G"!1!G2!3!BG !5!dGBG | !1!G2!3!B!1!d ef!4!g2 | !1!G2!3!BG !5!dGBG | "D"!3!AFDF A!5!cB!3!A |
"G"!1!G2!3!BG !5!dGBG | !1!G2!3!B!1!d ef!4!g2 | !5!afge !1!d3!2!B | "D"!1!A!2!F!1!DF !3!A!5!cBA :|


